developer-docs-site/static/img/socials/medium.svg

<svg fill="none" xmlns="http://www.w3.org/2000/svg" viewBox="2.56 2.54 18.88 18.92">
    <path d="M16.4106 8.98009L17.25 8.17716L17.2493 8.00003H14.3476L12.2794 13.1602L9.92657 8.00068H6.88285V8.17716L7.86356 9.35779C7.91097 9.40047 7.94765 9.45373 7.97062 9.51325C7.99359 9.57276 8.0022 9.63685 7.99575 9.70032V14.3414C8.00982 14.4239 8.00431 14.5086 7.97965 14.5886C7.95499 14.6685 7.91188 14.7416 7.85379 14.8018L6.75 16.1401V16.3159H9.87708V16.1401L8.77394 14.8018C8.71538 14.7416 8.67128 14.6689 8.64499 14.5891C8.61871 14.5094 8.61091 14.4247 8.62221 14.3414V10.3281L11.367 16.3165H11.6861L14.0435 10.3281V15.1014C14.0435 15.2277 14.0435 15.2525 13.9601 15.3358L13.1116 16.159V16.3348H17.2292V16.159L16.4106 15.3554C16.3752 15.3283 16.3478 15.2922 16.3314 15.2507C16.315 15.2093 16.3102 15.1642 16.3175 15.1203V9.21518C16.3102 9.17123 16.315 9.12614 16.3314 9.08472C16.3478 9.04331 16.3752 9.00714 16.4106 8.98009Z"
          fill="white"></path>
    <path fill-rule="evenodd" clip-rule="evenodd"
          d="M17.2583 2.83306C13.7917 2.44562 10.2083 2.44562 6.74177 2.83306C4.72971 3.05794 3.10538 4.64295 2.86883 6.66548C2.45429 10.2098 2.45429 13.7903 2.86883 17.3346C3.10538 19.3571 4.72971 20.9422 6.74177 21.167C10.2083 21.5545 13.7917 21.5545 17.2583 21.167C19.2703 20.9422 20.8946 19.3571 21.1312 17.3346C21.5457 13.7903 21.5457 10.2098 21.1312 6.66548C20.8946 4.64295 19.2703 3.05794 17.2583 2.83306ZM6.90838 4.32378C10.2642 3.94871 13.7358 3.94871 17.0916 4.32378C18.4218 4.47244 19.4872 5.52205 19.6414 6.83973C20.0424 10.2683 20.0424 13.7318 19.6414 17.1604C19.4872 18.478 18.4218 19.5277 17.0916 19.6763C13.7358 20.0514 10.2642 20.0514 6.90838 19.6763C5.57827 19.5277 4.51278 18.478 4.35867 17.1604C3.95767 13.7318 3.95767 10.2683 4.35867 6.83973C4.51278 5.52205 5.57827 4.47244 6.90838 4.32378Z"
          fill="white"></path>
</svg>

<svg width="100%" height="100%" fill="none" xmlns="http://www.w3.org/2000/svg" viewBox="2.56 2.54 18.88 18.92"><path d="m16.41 8.98.84-.803V8h-2.902l-2.069 5.16L9.927 8H6.883v.177l.98 1.18a.406.406 0 0 1 .133.343v4.641a.534.534 0 0 1-.142.46l-1.104 1.34v.175h3.127v-.176l-1.103-1.338a.553.553 0 0 1-.152-.46v-4.014l2.745 5.989h.32l2.357-5.989v4.773c0 .127 0 .151-.084.235l-.848.823v.176h4.117v-.176l-.818-.804a.245.245 0 0 1-.094-.235V9.215a.245.245 0 0 1 .094-.235Z" fill="#fff"/><path fill-rule="evenodd" clip-rule="evenodd" d="M17.258 2.833a47.721 47.721 0 0 0-10.516 0c-2.012.225-3.637 1.81-3.873 3.832a45.921 45.921 0 0 0 0 10.67c.236 2.022 1.86 3.607 3.873 3.832a47.77 47.77 0 0 0 10.516 0c2.012-.225 3.637-1.81 3.873-3.832a45.925 45.925 0 0 0 0-10.67c-.236-2.022-1.86-3.607-3.873-3.832Zm-10.35 1.49a46.22 46.22 0 0 1 10.184 0c1.33.15 2.395 1.199 2.55 2.517a44.421 44.421 0 0 1 0 10.32 2.89 2.89 0 0 1-2.55 2.516 46.216 46.216 0 0 1-10.184 0 2.89 2.89 0 0 1-2.55-2.516 44.421 44.421 0 0 1 0-10.32 2.89 2.89 0 0 1 2.55-2.516Z" fill="#fff"/></svg>
